flaticon/grooming/comb.svg

<svg xmlns="http://www.w3.org/2000/svg" width="32" height="32" viewBox="0 0 24 24">
    <path d="M 23.371094 5.25 L 22.070312 3.949219 L 14.894531 11.125 L 11.125 11.125 L 11.125 14.894531 L 3.949219 22.070312 L 5.25 23.371094 C 5.652344 23.777344 6.191406 24 6.773438 24 C 7.355469 24 7.894531 23.777344 8.300781 23.371094 L 23.371094 8.300781 C 23.777344 7.894531 24 7.355469 24 6.773438 C 24 6.191406 23.777344 5.652344 23.371094 5.25 Z M 22.699219 7.671875 L 7.671875 22.699219 C 7.175781 23.191406 6.371094 23.191406 5.875 22.699219 L 5.203125 22.027344 L 11.976562 15.253906 L 11.976562 12.023438 L 15.207031 12.023438 L 22.027344 5.203125 L 22.699219 5.875 C 22.921875 6.101562 23.058594 6.414062 23.058594 6.773438 C 23.058594 7.132812 22.921875 7.445312 22.699219 7.671875 Z M 22.699219 7.671875"/>
    <path d="M22.339844 4.261719L18.214844.132812C18.035156-.0429688 17.765625-.0429688 17.585938.132812 17.40625.3125 17.40625.582031 17.585938.761719L21.710938 4.890625C21.800781 4.980469 21.890625 5.023438 22.027344 5.023438 22.117188 5.023438 22.25 4.980469 22.339844 4.890625 22.519531 4.710938 22.519531 4.441406 22.339844 4.261719zM20.726562 5.875L16.597656 1.75C16.417969 1.570312 16.148438 1.570312 15.96875 1.75 15.789062 1.929688 15.789062 2.199219 15.96875 2.378906L20.097656 6.503906C20.1875 6.59375 20.277344 6.640625 20.410156 6.640625 20.546875 6.640625 20.636719 6.59375 20.726562 6.503906 20.90625 6.324219 20.90625 6.054688 20.726562 5.875zM19.15625 7.445312L15.027344 3.320312C14.847656 3.140625 14.578125 3.140625 14.398438 3.320312 14.21875 3.5 14.21875 3.769531 14.398438 3.949219L18.527344 8.074219C18.617188 8.164062 18.707031 8.210938 18.839844 8.210938 18.929688 8.210938 19.066406 8.164062 19.15625 8.074219 19.335938 7.894531 19.335938 7.625 19.15625 7.445312zM17.585938 9.015625L13.457031 4.890625C13.277344 4.710938 13.007812 4.710938 12.828125 4.890625 12.652344 5.070312 12.652344 5.339844 12.828125 5.519531L16.957031 9.644531C17.046875 9.734375 17.136719 9.78125 17.269531 9.78125 17.359375 9.78125 17.496094 9.734375 17.585938 9.644531 17.765625 9.464844 17.765625 9.195312 17.585938 9.015625zM15.96875 10.632812L11.84375 6.503906C11.664062 6.324219 11.394531 6.324219 11.214844 6.503906 11.035156 6.683594 11.035156 6.953125 11.214844 7.132812L15.34375 11.261719C15.433594 11.347656 15.523438 11.394531 15.65625 11.394531 15.789062 11.394531 15.878906 11.347656 15.96875 11.261719 16.148438 11.082031 16.148438 10.8125 15.96875 10.632812zM13.457031 11.261719L10.273438 8.074219C10.09375 7.894531 9.824219 7.894531 9.644531 8.074219 9.464844 8.253906 9.464844 8.523438 9.644531 8.703125L12.828125 11.886719C12.917969 11.976562 13.007812 12.023438 13.144531 12.023438 13.234375 12.023438 13.367188 11.976562 13.457031 11.886719 13.636719 11.707031 13.636719 11.4375 13.457031 11.261719zM11.84375 12.828125L8.65625 9.644531C8.476562 9.464844 8.210938 9.464844 8.03125 9.644531 7.851562 9.824219 7.851562 10.09375 8.03125 10.273438L11.214844 13.457031C11.304688 13.546875 11.394531 13.59375 11.527344 13.59375 11.664062 13.59375 11.753906 13.546875 11.84375 13.457031 12.023438 13.277344 12.023438 13.007812 11.84375 12.828125zM11.214844 15.386719L7.085938 11.261719C6.910156 11.082031 6.640625 11.082031 6.460938 11.261719 6.28125 11.4375 6.28125 11.707031 6.460938 11.886719L10.585938 16.015625C10.675781 16.105469 10.765625 16.148438 10.902344 16.148438 11.035156 16.148438 11.125 16.105469 11.214844 16.015625 11.394531 15.835938 11.394531 15.566406 11.214844 15.386719zM9.644531 16.957031L5.519531 12.828125C5.339844 12.652344 5.070312 12.652344 4.890625 12.828125 4.710938 13.007812 4.710938 13.277344 4.890625 13.457031L9.015625 17.585938C9.105469 17.675781 9.195312 17.71875 9.332031 17.71875 9.421875 17.71875 9.554688 17.675781 9.644531 17.585938 9.824219 17.40625 9.824219 17.136719 9.644531 16.957031zM8.03125 18.570312L3.902344 14.445312C3.722656 14.265625 3.453125 14.265625 3.273438 14.445312 3.09375 14.625 3.09375 14.894531 3.273438 15.074219L7.402344 19.199219C7.492188 19.289062 7.582031 19.335938 7.714844 19.335938 7.851562 19.335938 7.984375 19.289062 8.03125 19.199219 8.210938 19.019531 8.210938 18.75 8.03125 18.570312zM6.460938 20.140625L2.332031 16.015625C2.152344 15.835938 1.882812 15.835938 1.703125 16.015625 1.523438 16.195312 1.523438 16.464844 1.703125 16.644531L5.832031 20.769531C5.921875 20.859375 6.011719 20.90625 6.144531 20.90625 6.28125 20.90625 6.371094 20.859375 6.460938 20.769531 6.640625 20.589844 6.640625 20.320312 6.460938 20.140625zM4.890625 21.710938L.761719 17.585938C.582031 17.40625.3125 17.40625.132812 17.585938-.0429688 17.765625-.0429688 18.035156.132812 18.214844L4.261719 22.339844C4.351562 22.429688 4.441406 22.476562 4.574219 22.476562 4.664062 22.476562 4.800781 22.429688 4.890625 22.339844 5.070312 22.160156 5.070312 21.890625 4.890625 21.710938zM4.890625 21.710938"/>
</svg>

<svg xmlns="http://www.w3.org/2000/svg" width="32" height="32" viewBox="0 0 24 24">
    <path d="M23.371 5.25l-1.3-1.3-7.176 7.175h-3.77v3.77L3.949 22.07l1.301 1.301c.402.406.941.629 1.523.629s1.122-.223 1.528-.629l15.07-15.07c.406-.406.629-.946.629-1.528 0-.582-.223-1.12-.629-1.523zM22.7 7.672L7.672 22.699c-.496.492-1.3.492-1.797 0l-.672-.672 6.774-6.773v-3.23h3.23l6.82-6.82.672.671c.223.227.36.54.36.898 0 .36-.137.672-.36.899zm0 0"/>
    <path d="M22.34 4.262L18.215.132a.44.44 0 0 0-.63 0c-.179.18-.179.45 0 .63l4.126 4.129c.09.09.18.132.316.132.09 0 .223-.043.313-.132.18-.18.18-.45 0-.63zm0 0M20.727 5.875l-4.13-4.125a.434.434 0 0 0-.628 0c-.18.18-.18.45 0 .629l4.129 4.125c.09.09.18.137.312.137a.41.41 0 0 0 .317-.137c.18-.18.18-.45 0-.629zm0 0M19.156 7.445L15.027 3.32a.434.434 0 0 0-.629 0c-.18.18-.18.45 0 .63l4.13 4.124c.09.09.179.137.312.137.09 0 .226-.047.316-.137.18-.18.18-.449 0-.629zm0 0M17.586 9.016L13.457 4.89a.434.434 0 0 0-.629 0 .44.44 0 0 0 0 .629l4.129 4.125c.09.09.18.136.313.136.09 0 .226-.047.316-.136.18-.18.18-.45 0-.63zm0 0M15.969 10.633l-4.125-4.13a.434.434 0 0 0-.63 0c-.179.18-.179.45 0 .63l4.13 4.129c.09.086.18.133.312.133a.419.419 0 0 0 .313-.133c.18-.18.18-.45 0-.63zm0 0M13.457 11.262l-3.184-3.188a.434.434 0 0 0-.628 0c-.18.18-.18.45 0 .63l3.183 3.183c.09.09.18.136.317.136.09 0 .222-.046.312-.136a.43.43 0 0 0 0-.625zm0 0M11.844 12.828L8.656 9.645a.43.43 0 0 0-.625 0c-.18.18-.18.449 0 .628l3.184 3.184c.09.09.18.137.312.137a.41.41 0 0 0 .317-.137c.18-.18.18-.45 0-.629zm0 0M11.215 15.387l-4.13-4.125a.43.43 0 0 0-.624 0 .43.43 0 0 0 0 .625l4.125 4.129c.09.09.18.132.316.132a.405.405 0 0 0 .313-.132c.18-.18.18-.45 0-.63zm0 0M9.645 16.957L5.52 12.828a.44.44 0 0 0-.63 0c-.18.18-.18.45 0 .629l4.126 4.129c.09.09.18.133.316.133.09 0 .223-.043.313-.133.18-.18.18-.45 0-.629zm0 0M8.031 18.57l-4.129-4.125a.434.434 0 0 0-.629 0c-.18.18-.18.45 0 .63l4.13 4.124c.09.09.179.137.312.137.137 0 .27-.047.316-.137.18-.18.18-.449 0-.629zm0 0M6.46 20.14l-4.128-4.124a.434.434 0 0 0-.629 0c-.18.18-.18.449 0 .629l4.129 4.125c.09.09.18.136.313.136a.41.41 0 0 0 .316-.136c.18-.18.18-.45 0-.63zm0 0M4.89 21.71L.763 17.587a.434.434 0 0 0-.63 0 .44.44 0 0 0 0 .629l4.13 4.125c.09.09.18.137.312.137.09 0 .227-.047.317-.137.18-.18.18-.45 0-.63zm0 0"/>
</svg>
